X:1
T:Raddoppia anima mia
T:Domenico Obizzi
T:Sonetto
T:Source : Madrigali et arie a voce sola---Libro I ---Venetia---A.Vincenti---1627. Editor : André Vierendeels (22/02/16).
T:Notes : Original clefs : C1, F4 Editorial accidentals above the staff 
T:Raddoppia anima mia
T:©
T:©
T:©
T:©
T:©
T:©
T:©
T:©
T:©
T:©
T:©
C:Domenico Obizzi
Z:©
%%score 1 2
L:1/8
Q:1/4=96
M:4/4
K:C
V:1 treble nm="Soprano" snm="S"
V:2 bass nm="BC" snm="BC"
V:1
 z2 A/B/c/A/ d2 d2- | d2 cB c3 A | d2 c2 B4 | A2 c^G A2 dA | B2 AG A2 A2- | A_B/A/- G4 FE | E4 D4 | %7
w: Rad- * * * dop- pi'a-|* ni- ma mia rad-|dop- pia'i ba-|ci, che non puo, che non|puo'un ba- cia sol far|_ _ _ _ mi con-|ten- to,|
 z2 D/^C/D/E/ F2 G/A/_B/G/ | A2 GF G2 c/B/c/d/ | e2 d/c/d/B/ c2 TB>A | B3 A TA3 G | A4 A2 A2 | %12
w: e _ _ _ non _ _ _ _|puo'un ba- cio sol, e _ _ _|non _ _ _ _ puo'un ba- cio|sol del mio tor-|men- to, le|
 AGGF G2 G2- | G2 FG E4 | D4 z D/E/ F/G/A/F/ | GA/_B/ cB A2 GF | G3 F G2 A2 | _BATAG- A2 A2 | %18
w: pe- ne ra- dol- cir gra-|* vi'e mor- da-|ci, e _ _ _ _ _|_ _ _ _ non puo'un ba- cio|sol del mio tor-|men- * * to, _ le|
 AG GF/E/ FEGF | E2 F4 E2 | z2 G4 FG | EF G/F/G/F/ E4 | !fermata!D8 || F3 E- D4 | z2 A2 c2 G2 | %25
w: pe- * * * * * ne ra- dol-|cir gra- vi,|gra- vi'e mor-|da- * * * * * *|ci.|Men- tre _|ch'in sen ti|
 AGAF G4 | z2 A2 F3 E | F/EG/ FG/F/- E4 | z A/_B/- c4 cB | c4- c_BBA | A3 G G4 | F4 z A/B/- c2- | %32
w: giac- * * * co|e'in sen mi|gia- * * * * ci, _|po- * * co pia-|cer _ per un sol|ba- c'io sen-|to, po- * *|
"^-natural" c2 cB c4 | z c_BA B2 G2 | z GFE F2 E/F/G/F/ | E4 D4 | z D/E/ F/G/A/B/ c2 cG | %37
w: * co pia- cer|per un sol ba- cio,|per un sol ba- cio _ _ _|sen- to,|d'am- * * * * * * mi tu|
 A2 Ac F/E/F/E/ F/4E/4F/4E/4F/4E/4F/4G/4 | AGTGF .G4 | GGEC G2 G2 | z cBA B2 ^c/d/e/c/ | %41
w: pu- re'e mil- le _ _ _ _ _ _ _ _ _ _ _|ba- * * cie cen-|to, e tut- t'in- te- ri,|e tut- t'in- te- ri _ _ _|
 d d/c/ _B/A/G/^F/ G2 FE | E4 D4 | FD/E/ FG/A/ GE/F/ GA/_B/ | AF/G/ A_B/c/ B2 AG | A2 A2 z cAc | %46
w: sian tut- * * * * * * ti vi-|va- ci,|D'am- * * * * * * * * * * *|* * * * * * * mi tu|pu- re, e mil- le|
 FD/E/ F/G/A/B/ cA/B/ c/d/e/f/ | g2 c2 d4 | dBAG A2 B/c/d/B/ | c2 e4 dc | B4 AAGF | %51
w: ba- * * * * * * * * * * * * *|* cie cen-|to, et tut- t'in- te- ri _ _ _|sian tut- ti vi-|va- ci, e tut- t'in-|
 G2 E/F/G/E/ F D/E/ FG/A/ | G2 FE E4 | !fermata!D8 || z2 A/B/c/A/ d4 | c_BAG A2 c2- | %56
w: te- ri _ _ _ sian tut- * * * *|* ti vi- va-|ci.|Quan- * * * *|to mi ba- ci sol tan-|
 c2 GA FGTGF- | G4 G2 E2 | A2 AE F4 | _B2 BF GFFE | E4 D4 | F2 D2 A2 AB | c2 G2 AGA_B | %63
w: * to son vi- * * vo,|_ vi- ve|l'a- ni- ma mia,|l'a- ni- ma mia ne ba- ci|tuo- i,|vi- ve l'a- ni- ma|mia ne ba- * * *|
"^-natural" cBcG AG AF | G4 G2 G2- | G2 FE F2 G/A/_B/G/ | A2 A4 GF | G2 E2 F2 ED | %68
w: * * * * * * ci _|tuo- i, son|_ sen- za'i ba- ci _ _ _|tuoi, son sen- za'i|ba- ci tuoi, sen- za|
 E2 ^C/D/E/C/ D2 G2- | G2 FG E4 | !fermata!D8 || z2 A2 F2 D2 | A B/c/ d/c/Tc/>B/ c3 _B | %73
w: ba- ci _ _ _ tuoi d'a-|* ni- ma pri-|vo.|Al- men' s'un|ba cio _ _ _ _ _ sol do-|
 A2 G2 _BAGF | G4 G2 E2 | F G/A/ _B/A/A/>G/ A3 G | F2 E2 DE/F/ G/A/_B/c/ | de/f/ ed- ^c3 e | %78
w: nar mi vuo- * * *|* i, s'un|ba cio _ _ _ _ _ sol do-|nar mi vuo- * * * * * *|* * * * i, _ non|
 A2 G2 AG AB | c3 G A2 G A/G/- | FG/A/ GF- E>F E>F- | G2 G2 A2 A2 | _BABc d2 A2 | %83
w: far il la- * bro _|tuo di ba- ci schi- *|* * * * vo, _ _ _ _|_ il la- bro|tuo _ _ _ _ di|
 _B2 A B/A/ GA/B/ AG- | ^F>G F>G A2 D/E/F/D/ | E2 ^F/G/A/F/ G2 A/B/c/A/ | B3 A c2 _B2 | A4 G4 | %88
w: ba- ci, schi _ _ _ _ _ vo|_ _ _ _ che _ _ _ _|s'e- gli _ _ _ pren- de'i _ _ _|miei non cu- ro'i|suo- i,|
 z2 A/_B/c/A/ B2 c/A/B/c/- | d2 c/_B/c/A/ B3 B | A3 c c_BAG | A_BcA BAGF | E2 F/E/G/F/ E4 | D8 |] %94
w: che _ _ _ _ s'e- * * *|* gli _ _ _ pren- de'i|miei non cu- * * *||* ro'i _ _ _ suo-|i.|
V:2
 D,4 D,3 E, | F,2 G,2 A,2 F,2 | D,2 A,,2 E,4 | A,,4 A,2 ^F,2 | G,2 E,2 D,4 | E,4 F,4 | %6
 G,2 A,2 D,4 | D,4 D,2 E,2 | F,2 D,2 C,4 | C,2 D,2 E,2 ^F,2 | G,2 ^F,2 E,4 | D,4 D,2 C,2 | %12
 _B,,6 G,,2 | A,,2 _B,,2 G,,2 A,,2 | D,4 D,4 | E,4 F,2 E,D, | C,4 _B,,2 A,,2 | G,,4 D,4 | %18
 _B,,4 A,,2 G,,2 | A,,4 _B,,4 | G,,4 A,,2 _B,,2 | G,,4 A,,4 | !fermata!D,8 || D,8 | D,4 E,4 | %25
 F,4 C,4 | C,4 D,4 |"^b" G,,4 A,,4 | F,,8 | F,,4 G,,4 | A,,2 _B,,2 C,4 | F,,4 F,4 | E,2 D,2 C,4 | %33
 C,2 D,2 G,,4 | G,,2 A,,2 D,,2 G,,2 | A,,4 D,4 | D,4 E,4 | F,4 F,2 E,2 | D,4 C,4 | C,8 | %40
 A,,4 G,,2 E,,2 | D,,4 G,,4 | A,,4 D,4 | D,4 E,4 | F,4 G,2 E,2 | F,4 F,3 E, | D,4 C,3 B,, | %47
 A,,4 G,,4 | G,,2 E,,2 F,,2 G,,2 | A,,3 B,, C,2 D,2 | E,4 A,,4 | B,,2 ^C,2 D,4 | G,,4 A,,4 | D,8 || %54
 D,8 | E,4 F,4 | F,2 E,2 D,4 | C,4 C,4 | ^C,4 D,4 | G,,4 G,,4 | A,,4 D,4 | D,8 | E,4 F,4 | %63
 F,2 E,2 D,4 | C,4 C,4 | C,4 D,2 _B,,2 | A,,4 A,,4 | B,,2 C,2 D,4 | G,,2 A,,2 _B,,2 G,,2 | A,,8 | %70
 D,8 || D,8 | D,4 E,4 | F,2 E,2 D,4 | C,4 C,4 | _B,,4 A,,4 | D,2 A,,2 _B,,3 A,, | G,,4 A,,4 | %78
 F,2 E,2 F,2 D,2 | C,4 F,2 E,2 | D,4 C,4 | C,2 _B,,2 A,,2 D,2 | G,,4 G,2 ^F,2 | G,2 D,2 _E,4 | %84
 D,4 D,2 B,,2 | C,2 D,2 E,2 ^F,2 | G,2 _E,2 C,4 | D,4 G,,4 | G,2 ^F,2 G,2 A,2 | _B,2 A,2 G,4 | %90
 F,4 E,4 | F,4 G,4 | A,2 G,2 A,2 A,,2 | D,8 |] %94

